X:7144
T:Holoind  
M:6/8
L:1/8
N:Bar 6 - note lengths not clear.
K:G
A|GBe dBG|B2BB2A|GBe dBG|ABAA2B|GBe dBG|B2d2g a|bag fed|B2BB2:||:d|g2g g
ab|d2dd2B|gg2 gab|e2e2e2|gfe gab d2Bg2a|gag fed|B2B B:||
